!!!!SEGMENT: Wil1003c-Missa_queramus_cum_pastoribus-Credo
!!!id: Wil1003c
!!!AGN: Mass; Credo
!!!voices: 3-4
!!!OPR: Missa queramus cum pastoribus
!!!COM: Adrian Willaert
!!!OTL: Credo
**kern	**kern	**kern	**kern
*part4	*part3	*part2	*part1
*staff4	*staff3	*staff2	*staff1
*I"Bassus	*I"Tenor	*I"Altus	*I"Superius
*clefF4	*clefGv2	*clefG2	*clefG2
*k[b-]	*k[b-]	*k[b-]	*k[b-]
*F:	*F:	*F:	*F:
*M2/1	*M2/1	*M2/1	*M2/1
*met(C|)	*met(C|)	*met(C|)	*met(C|)
=1	=1	=1	=1
!!section: Patrem
!!!OMD: Patrem
0r	0r	[0f	0r
=2	=2	=2	=2
0r	0r	1f]	[0cc
.	.	1c	.
=3	=3	=3	=3
0r	0r	1.f	1cc]
.	.	.	1f
.	.	2d	.
=4	=4	=4	=4
0r	0r	2e	1cc
.	.	2.f	.
.	.	.	2cc
.	.	4g	.
.	.	[2a	2cc
=5	=5	=5	=5
0r	0r	4a]	2.b-y
.	.	4g	.
.	.	1g	.
.	.	.	8aL
.	.	.	8gJ
.	.	.	1a
.	.	2f#i	.
=6	=6	=6	=6
0r	0r	2g	0g
.	.	2c	.
.	.	2B-X	.
.	.	[2c	.
=7	=7	=7	=7
0r	0r	4c]	2r
.	.	4d	.
.	.	2e	2g
.	.	2.d	2a
.	.	.	2b-y
.	.	4c	.
=8	=8	=8	=8
0r	1r	2A	2cc
.	.	1f	2a
.	1c	.	2g
.	.	4e	[2a
.	.	4d	.
=9	=9	=9	=9
0r	2c	2.e	2a]
.	1c	.	4g
.	.	4d	4f
.	.	1e	1g
.	2c	.	.
=10	=10	=10	=10
1F	1F	1c	2.f
.	.	.	4g
2F	[1c	[1f	1a
[2F	.	.	.
=11	=11	=11	=11
2F]	2c]	1f]	2r
2F	2c	.	2a
1BB-y	2.B-y	1r	2b-y
.	.	.	[2dd
.	8AL	.	.
.	8GJ	.	.
=12	=12	=12	=12
1.F	2.A	0r	2dd]
.	.	.	4cc
.	4B-y	.	4b-y
.	2c	.	2.a
2F	[2d	.	.
.	.	.	4b-y
=13	=13	=13	=13
2.E	4d]	0r	1g
.	4c	.	.
.	1c	.	.
8DL	.	.	.
8CJ	.	.	.
1D	.	.	1f
.	2BnXi	.	.
=14	=14	=14	=14
0C	2c	0r	0r
.	1G	.	.
.	2A	.	.
=15	=15	=15	=15
2r	2B-y	0r	0r
1C	2c	.	.
.	1A	.	.
2D	.	.	.
=16	=16	=16	=16
2E	2G	0r	2r
2F	1A	.	1ff
2D	.	.	.
2D	4G	.	2dd
.	4F	.	.
=17	=17	=17	=17
0C	2G	0r	2ee
.	2A	.	2cc
.	1G	.	1ee
=18	=18	=18	=18
2.D	1F	2r	1dd
.	.	1f	.
4E	.	.	.
1F	2.A	.	[1cc
.	.	2f	.
.	4B-y	.	.
=19	=19	=19	=19
0C	0c	2e	2cc]
.	.	2c	4b-y
.	.	.	4a
.	.	1e	2g
.	.	.	[2cc
=20	=20	=20	=20
0r	1G	1d	2cc]
.	.	.	2b-y
.	1r	2c	4a
.	.	.	4g
.	.	[2f	4a
.	.	.	4b-y
=21	=21	=21	=21
0r	0r	2f]	2cc
.	.	4e	2.dd
.	.	4d	.
.	.	1e	.
.	.	.	4cc
.	.	.	[2cc
=22	=22	=22	=22
1r	0r	1d	2cc]
.	.	.	2bnXi
2r	.	1c	1cc
2c	.	.	.
=23	=23	=23	=23
2c	0r	2.e	1r
2c	.	.	.
.	.	4f	.
1c	.	2g	1cc
.	.	[2a	.
=24	=24	=24	=24
1F	0r	2a]	2cc
.	.	4g	4b-y
.	.	4f	4a
2.c	.	2e	2g
.	.	[2g	2ee
4c	.	.	.
=25	=25	=25	=25
2B-y	0r	2g]	2dd
2A	.	2c	1cc
1G	.	2.d	.
.	.	.	2b-y
.	.	4e	.
=26	=26	=26	=26
1d	0r	2f	2a
.	.	2d	4g
.	.	.	4f
2c	.	1e	2g
2A	.	.	[2a
=27	=27	=27	=27
1B-y	0r	1d	2a]
.	.	.	2g
2A	.	2r	1a
2D	.	2d	.
=28	=28	=28	=28
2E	1r	2c	1r
2F	.	2A	.
4BB-y	[1f	1B-y	1dd
4C	.	.	.
4D	.	.	.
4E	.	.	.
=29	=29	=29	=29
1F	2f]	1A	2cc
.	2f	.	2a
1BB-y	1f	[1d	1b-y
=30	=30	=30	=30
0F	1f	2d]	2a
.	.	4c	1cc
.	.	4B-y	.
.	[1c	2A	.
.	.	[2f	4b-y
.	.	.	4a
=31	=31	=31	=31
2r	1c]	2f]	1g
2C	.	2e	.
2D	1r	2d	2r
2F	.	2d	2f
=32	=32	=32	=32
2E	2r	2.c	2g
2.F	1f	.	1a
.	.	4B-y	.
.	.	2c	.
4E	.	.	.
2D	2f	2d	2b-y
=33	=33	=33	=33
2C	2e	2G	2cc
1F	4d	1A	2.a
.	4c	.	.
.	2d	.	.
.	.	.	4g
2BB-y	2d	2B-y	[2f
=34	=34	=34	=34
1C	1c	1G	2f]
.	.	.	2e
2.F	2r	1A	[1f
.	[2A	.	.
4E	.	.	.
=35	=35	=35	=35
1D	2A]	2r	1f]
.	2A	2d	.
1r	2B-y	2d	2r
.	2c	2e	2a
=36	=36	=36	=36
0r	2d	2f	2a
.	2G	2g	2b-y
.	2r	2c	2cc
.	[2G	[2g	2dd
=37	=37	=37	=37
2r	2G]	2g]	2g
2D	2A	2.f	1dd
2D	2B-y	.	.
.	.	4d	.
2E	2c	2g	[2cc
=38	=38	=38	=38
2F	1d	2f	2cc]
2G	.	4e	2bnXi
.	.	4d	.
[1C	1c	[1e	1cc
=39	=39	=39	=39
0C]	1.c	1e]	2r
.	.	.	2g
.	.	2r	2g
.	2c	2e	2a
=40	=40	=40	=40
0r	2B-y	2g	2b-y
.	2A	1a	2.cc
.	2.c	.	.
.	.	.	4dd
.	.	[2g	[2ee
.	4B-y	.	.
=41	=41	=41	=41
0r	2c	2g]	2ee]
.	2d	2f	2.dd
.	1A	2e	.
.	.	.	4cc
.	.	4d	[2cc
.	.	4c	.
=42	=42	=42	=42
0r	1r	2d	2cc]
.	.	2d	2bnXi
.	2r	2c	2.cc
.	[2A	[2c	.
.	.	.	4b-y
=43	=43	=43	=43
1F	2A]	2c]	2a
.	2A	2d	4g
.	.	.	4f
2E	2c	2e	2g
2D	[2d	[2f	2b-y
=44	=44	=44	=44
2.F	2d]	4f]	1a
.	.	4g	.
.	2.c	1a	.
4E	.	.	.
2F	.	.	2r
.	4A	.	.
2G	2B-y	2g	2dd
=45	=45	=45	=45
1D	2A	2r	2dd
.	4G	2f	2dd
.	4F	.	.
1r	1G	2e	1b-y
.	.	2d	.
=46	=46	=46	=46
0r	2F	2.f	2a
.	2c	.	2dd
.	.	4e	.
.	2A	2f	2cc
.	2G	2g	2b-y
=47	=47	=47	=47
1r	1.B-y	1d	2b-y
.	.	.	4a
.	.	.	4g
1D	.	2r	2.f
.	2A	[2d	.
.	.	.	4g
=48	=48	=48	=48
1D	1F	2d]	2a
.	.	2d	2b-y
2.F	2r	2c	1a
.	[2f	2d	.
4G	.	.	.
=49	=49	=49	=49
2A	2f]	2c	2r
2.B-y	2f	1d	1dd
.	1f	.	.
4A	.	.	.
2F	.	2A	2cc
=50	=50	=50	=50
1G	1d	1B-y	1b-y
2.F	[1f	1c	1a
4E	.	.	.
=51	=51	=51	=51
1D	1f]	2r	1a
.	.	2f	.
2C	1e	[1g	2.cc
[2c	.	.	.
.	.	.	4dd
=52	=52	=52	=52
2c]	2c	2g]	2ee
2B-y	2.d	2d	2.ff
1A	.	2.f	.
.	4c	.	4ee
.	[2c	.	2cc
.	.	4e	.
=53	=53	=53	=53
1G	2c]	1g	1dd
.	2BnXi	.	.
2r	1c	1g	1ee
2C	.	.	.
=54	=54	=54	=54
2D	1A	2f	2r
2.F	.	1a	2cc
.	1A	.	2dd
4E	.	.	.
2D	.	2f	[2ff
=55	=55	=55	=55
2C	2.c	2.g	2ff]
1c	.	.	2ee
.	4d	4f	.
.	2e	4g	2cc
.	.	4a	.
2B-y	2f	2b-y	[2dd
=56	=56	=56	=56
1c	2e	1g	4dd]
.	.	.	4cc
.	4d	.	1cc
.	4c	.	.
1G	1d	1r	.
.	.	.	2bnXi
=57	=57	=57	=57
1C	2.c	1g	0cc
.	4d	.	.
1r	2e	2g	.
.	2f	2a	.
=58	=58	=58	=58
2.C	2e	2g	0r
.	2.c	2g	.
4D	.	.	.
2E	.	2g	.
.	4B-y	.	.
2F	[2A	2f	.
=59	=59	=59	=59
1C	2A]	1e	1r
.	2G	.	.
1F	4A	2f	1cc
.	4B-y	.	.
.	4c	2f	.
.	4d	.	.
=60	=60	=60	=60
2r	2e	2g	2cc
2BB-y	1f	2b-y	2dd
2.F	.	2a	2cc
.	4e	4g	2cc
4G	4d	4f	.
=61	=61	=61	=61
2A	2c	4e	2cc
.	.	4d	.
2B-y	2d	2.g	2b-y
2.F	[1c	.	1a
.	.	4f	.
.	.	[2f	.
4G	.	.	.
=62	=62	=62	=62
1A	1c]	2f]	2cc
.	.	2e	2cc
1D	1r	2.f	2dd
.	.	.	2ff
.	.	8eL	.
.	.	8dJ	.
=63	=63	=63	=63
0r	0r	2c	2ee
.	.	2.g	4dd
.	.	.	4cc
.	.	.	4b-y
.	.	4e	4a
.	.	2f	[2dd
=64	=64	=64	=64
0r	1r	2g	4dd]
.	.	.	4cc
.	.	2c	1cc
.	2r	1d	.
.	2G	.	2bnXi
=65	=65	=65	=65
2r	2A	1c	1cc
2F	2c	.	.
2G	2B-y	1r	1r
2B-y	4A	.	.
.	4G	.	.
=66	=66	=66	=66
2A	2F	0r	0r
4G	1c	.	.
4F	.	.	.
4E	.	.	.
4D	.	.	.
[2G	2B-y	.	.
=67	=67	=67	=67
4G]	2A	0r	1r
4F	.	.	.
1F	4G	.	.
.	4F	.	.
.	1G	.	2r
2E	.	.	2g
=68	=68	=68	=68
1F	1F	2r	2a
.	.	2f	2cc
1r	1r	2g	2.b-y
.	.	2b-y	.
.	.	.	8aL
.	.	.	8gJ
=69	=69	=69	=69
0r	0r	2a	2f
.	.	4g	1cc
.	.	4f	.
.	.	4e	.
.	.	4d	.
.	.	[2g	2b-y
=70	=70	=70	=70
1F	1r	2g]	2a
.	.	1f	4g
.	.	.	4f
1C	1c	.	1g
.	.	2e	.
=71	=71	=71	=71
1F	2c	0f	0a
.	2d	.	.
2F	1c	.	.
[2A	.	.	.
=72	=72	=72	=72
2A]	2c	0r	0r
2G	2B-y	.	.
2F	1A	.	.
4E	.	.	.
4D	.	.	.
=73	=73	=73	=73
1E	2G	0r	0r
.	2c	.	.
1D	2d	.	.
.	2f	.	.
=74	=74	=74	=74
1A	2e	2r	0r
.	4d	2f	.
.	4c	.	.
1G	2B-y	2g	.
.	[2d	2b-y	.
=75	=75	=75	=75
1F	4d]	2.a	0r
.	4c	.	.
.	1c	.	.
.	.	8gL	.
.	.	8fJ	.
1G	.	4e	.
.	.	4d	.
.	2B-y	[2g	.
=76	=76	=76	=76
2E	2c	2g]	1r
2F	2A	1f	.
1C	1G	.	1cc
.	.	2e	.
=77	=77	=77	=77
1F	2r	2f	2cc
.	2A	2c	2cc
2F	2A	2c	1a
2F	2A	2c	.
=78	=78	=78	=78
1D	1F	1d	1b-y
1C	1G	1e	[1cc
=79	=79	=79	=79
1F	1.A	1f	1cc]
1F	.	1c	1cc
.	2A	.	.
=80	=80	=80	=80
2F	2A	1f	2cc
2F	2A	.	2cc
1D	1A	2f	1dd
.	.	2f	.
=81	=81	=81	=81
1C	1c	2.g	1ee
.	.	4a	.
1G	[1B-y	1b-y	1dd
=82	=82	=82	=82
1.G	1B-]	1.g	1.b-y
.	[1d	.	.
2G	.	2g	2b-y
=83	=83	=83	=83
1G	2d]	1g	1b-y
.	2d	.	.
1D	1d	1f	1a
=84	=84	=84	=84
1E-X	2B-y	1e-X	1.g
.	2.c	.	.
1C	.	1e-i	.
.	4B-y	.	.
.	4A	.	[2a
.	4G	.	.
=85	=85	=85	=85
0D	2F	0d	4a]
.	.	.	4g
.	2B-y	.	1g
.	1A	.	.
.	.	.	2f#i
=86	=86	=86	=86
1G	1r	1r	1g
1r	1B-y	1d	1r
=87	=87	=87	=87
1D	1B-y	0d	1f
1D	1A	.	1f
=88	=88	=88	=88
1C	0c	1e	1g
1F	.	1f	1a
=89	=89	=89	=89
1BB-y	1d	1f	1b-y
[1C	[1c	1e	1g
=90	=90	=90	=90
1C]	1c]	2r	2r
.	.	2e	2g
2r	2r	[1e	1g
2C	2c	.	.
=91	=91	=91	=91
1C	1c	2e]	1g
.	.	2c	.
1C	1G	1e	1cc
=92	=92	=92	=92
1G	1B-y	1d	2b-y
.	.	.	1g
1A	2A	1c	.
.	[2c	.	2f#i
=93	=93	=93	=93
0G	2c]	0d	[0gl
.	4BnXi	.	.
.	4A	.	.
.	1Bni	.	.
=94	=94	=94	=94
0Cl	0cl	0el	0g]
=95||	=95||	=95||	=95||
*M2/1	*M2/1	*M2/1	*M2/1
*met(C|)	*met(C|)	*met(C|)	*met(C|)
!!section: Crucifixus
!!!OMD: Crucifixus
0r	0r	0c	0r
=96	=96	=96	=96
0r	0r	1c	0r
.	.	1B-y	.
=97	=97	=97	=97
0F	0r	0A	0r
=98	=98	=98	=98
1F	0r	1.c	0r
1E	.	.	.
.	.	2c	.
=99	=99	=99	=99
0D	0r	2.d	0r
.	.	4e	.
.	.	[1f	.
=100	=100	=100	=100
1.F	0r	2f]	0r
.	.	4e	.
.	.	4d	.
.	.	2c	.
2F	.	2f	.
=101	=101	=101	=101
2.G	0r	1e	0r
4A	.	.	.
[1B-y	.	2d	.
.	.	[2G	.
=102	=102	=102	=102
2B-]	0r	4G]	0r
.	.	4A	.
4A	.	2B-y	.
4G	.	.	.
2F	.	4A	.
.	.	4G	.
2B-y	.	[2g	.
=103	=103	=103	=103
1A	0r	2g]	0r
.	.	2f#i	.
2G	.	[1g	.
[2C	.	.	.
=104	=104	=104	=104
4C]	0r	1g]	0r
4D	.	.	.
2E	.	.	.
4D	.	2r	.
4C	.	.	.
[2c	.	2e	.
=105	=105	=105	=105
2c]	0r	2f	0r
2BnXi	.	2d	.
[1c	.	2e	.
.	.	[2g	.
=106	=106	=106	=106
1c]	0r	4g]	0r
.	.	4f	.
.	.	4e	.
.	.	4d	.
2r	.	2c	.
2A	.	2e	.
=107	=107	=107	=107
2B-y	0r	1d	1r
2G	.	.	.
2A	.	4c	[1cc
.	.	4d	.
[2c	.	4e	.
.	.	4f	.
=108	=108	=108	=108
4c]	0r	2g	1cc]
4B-y	.	.	.
4A	.	2.a	.
4G	.	.	.
2F	.	.	1cc
.	.	4g	.
2A	.	[2f	.
=109	=109	=109	=109
1G	0r	2f]	1b-y
.	.	2e	.
1F	.	[1f	1a
=110	=110	=110	=110
1.A	0r	2f]	1.cc
.	.	4e	.
.	.	4d	.
.	.	1e	.
2A	.	.	2cc
=111	=111	=111	=111
1G	0r	2r	2.dd
.	.	1d	.
.	.	.	4ee
1D	.	.	[1ff
.	.	2d	.
=112	=112	=112	=112
1F	0r	1c	2ff]
.	.	.	4ee
.	.	.	4dd
1F	.	2A	2cc
.	.	2c	2ff
=113	=113	=113	=113
1C	0r	2c	1ee
.	.	2.G	.
2r	.	.	[1dd
.	.	4A	.
[2G	.	[2B-y	.
=114	=114	=114	=114
4G]	0r	4B-]	1dd]
4A	.	4c	.
2B-y	.	4d	.
.	.	4e	.
4A	.	2f	2r
4G	.	.	.
[2c	.	[2e	[2g
=115	=115	=115	=115
2c]	0r	4e]	4g]
.	.	4d	4a
2B-y	.	1g	2b-y
2c	.	.	4a
.	.	.	4g
2F	.	2f	[2cc
=116	=116	=116	=116
1c	0r	2a	4cc]
.	.	.	4dd
.	.	2.g	2ee
2B-y	.	.	2dd
.	.	4f	.
2c	.	2e	[2cc
=117	=117	=117	=117
1G	0r	1d	2cc]
.	.	.	2bnXi
1r	.	[1c	2.cc
.	.	.	4b-y
=118	=118	=118	=118
1F	0r	1c]	4a
.	.	.	4g
.	.	.	1a
2F	.	1r	.
2F	.	.	4g
.	.	.	4f
=119	=119	=119	=119
1E	0r	1r	1g
2D	.	1f	1r
[2F	.	.	.
=120	=120	=120	=120
4F]	0r	2f	1cc
4G	.	.	.
4A	.	2f	.
4B-y	.	.	.
2c	.	1e	2cc
2C	.	.	2cc
=121	=121	=121	=121
1G	0r	2.d	1b-y
.	.	4e	.
1r	.	4f	2.a
.	.	4g	.
.	.	[2f	.
.	.	.	4b-y
=122	=122	=122	=122
1F	0r	2f]	4cc
.	.	.	4dd
.	.	4e	1cc
.	.	4d	.
2F	.	2c	.
2F	.	2d	4b-y
.	.	.	4a
=123	=123	=123	=123
1E-X	0r	1G	2b-y
.	.	.	2cc
1D	.	1d	1f
=124	=124	=124	=124
1.F	0r	2d	1a
.	.	2d	.
.	.	1c	2a
2F	.	.	2a
=125	=125	=125	=125
2.G	0r	1B-y	1g
4A	.	.	.
4B-y	.	2r	1f
4c	.	.	.
[2B-y	.	2d	.
=126	=126	=126	=126
2B-]	0r	2d	2r
4A	.	2e	2a
4G	.	.	.
2F	.	2f	2a
2B-y	.	2d	2b-y
=127	=127	=127	=127
1A	0r	2.e	2cc
.	.	.	2a
.	.	4f	.
1G	.	2.g	2.b-y
.	.	4f	4cc
=128	=128	=128	=128
2r	0r	4d	2.dd
.	.	4e	.
2D	.	1f	.
.	.	.	4cc
2D	.	.	4a
.	.	.	4b-y
2E	.	4e	[2cc
.	.	4d	.
=129	=129	=129	=129
2F	0r	2c	2cc]
2D	.	2f	4b-y
.	.	.	4a
2E	.	2g	2g
2F	.	[2a	[2cc
=130	=130	=130	=130
2.G	0r	2a]	2cc]
.	.	1g	2b-y
4F	.	.	.
1D	.	.	1a
.	.	2f#i	.
=131	=131	=131	=131
2r	0r	2.g	2g
2.G	.	.	1b-y
.	.	4f	.
.	.	1d	.
4A	.	.	.
[2B-y	.	.	4a
.	.	.	4g
=132	=132	=132	=132
2B-]	0r	1d	2f
4A	.	.	2b-y
4G	.	.	.
2F	.	1r	2a
2B-y	.	.	[2g
=133	=133	=133	=133
2c	0r	0r	2g]
2.d	.	.	2f
.	.	.	1e
4c	.	.	.
[2c	.	.	.
=134	=134	=134	=134
2c]	0r	2r	1d
2BnXi	.	2g	.
1c	.	2g	2r
.	.	2e	2cc
=135	=135	=135	=135
1r	0r	2f	2dd
.	.	2g	2b-y
2r	.	2a	2.cc
2c	.	[2g	.
.	.	.	4b-y
=136	=136	=136	=136
2d	0r	4g]	2a
.	.	4f	.
2B-y	.	1f	2b-y
1c	.	.	2.g
.	.	2e	.
.	.	.	4a
=137	=137	=137	=137
2.B-y	0r	1f	4b-y
.	.	.	4cc
.	.	.	1dd
4A	.	.	.
1G	.	1B-y	.
.	.	.	4cc
.	.	.	4b-y
=138	=138	=138	=138
1F	0r	0f	2.a
.	.	.	4b-y
2r	.	.	1cc
2F	.	.	.
=139	=139	=139	=139
2G	0r	2r	2b-y
2A	.	2c	2a
2B-y	.	2d	1g
2c	.	2e	.
=140	=140	=140	=140
2F	0r	2f	0r
1c	.	2g	.
.	.	2.a	.
4B-y	.	.	.
4A	.	4g	.
=141	=141	=141	=141
2B-y	0r	2f	2r
2c	.	2e	2cc
1G	.	1d	2cc
.	.	.	2bnXi
=142	=142	=142	=142
2r	0r	1c	2cc
2C	.	.	2ee
2D	.	1r	2dd
2E	.	.	[2cc
=143	=143	=143	=143
2F	0r	1r	2cc]
2G	.	.	2b-y
2.A	.	2r	1cc
.	.	2c	.
4G	.	.	.
=144	=144	=144	=144
2F	0r	2d	2r
2E	.	2e	2g
1D	.	2f	2a
.	.	2d	2b-y
=145	=145	=145	=145
0r	0r	2e	2cc
.	.	2f	2dd
.	.	2.c	2.ee
.	.	4d	4dd
=146	=146	=146	=146
0r	0r	4e	2cc
.	.	4f	.
.	.	2.g	2b-y
.	.	.	1a
.	.	4f	.
.	.	[2f	.
=147	=147	=147	=147
2r	0r	2f]	1g
2c	.	4e	.
.	.	4d	.
2c	.	1e	2r
2c	.	.	2cc
=148	=148	=148	=148
2d	0r	0r	2a
4c	.	.	2b-y
4B-y	.	.	.
2A	.	.	2cc
[2B-y	.	.	2f
=149	=149	=149	=149
2B-]	0r	1r	2g
2A	.	.	2a
2.G	.	2r	2.b-y
.	.	2g	.
4A	.	.	4cc
=150	=150	=150	=150
2B-y	0r	2g	2dd
2c	.	2g	2ee
2.F	.	2a	1cc
.	.	4g	.
4G	.	4f	.
=151	=151	=151	=151
0A	0r	2e	2r
.	.	1f	2cc
.	.	.	2cc
.	.	2e	2cc
=152	=152	=152	=152
0r	0r	2.d	2dd
.	.	.	4cc
.	.	4e	4b-y
.	.	2f	2a
.	.	2g	[2b-y
=153	=153	=153	=153
1r	0r	2d	2b-]
.	.	1f	2a
1c	.	.	2.g
.	.	2e	.
.	.	.	4a
=154	=154	=154	=154
2B-y	0r	2d	2b-y
2A	.	1e	2cc
1B-y	.	.	2.f
.	.	2d	.
.	.	.	4g
=155	=155	=155	=155
2A	0r	1c	0a
2.F	.	.	.
.	.	1f	.
4G	.	.	.
4A	.	.	.
4B-y	.	.	.
=156	=156	=156	=156
2c	0r	2e	0r
1d	.	2d	.
.	.	1e	.
2c	.	.	.
=157	=157	=157	=157
2B-y	0r	2d	1r
4A	.	2.c	.
4G	.	.	.
1A	.	.	1cc
.	.	4d	.
.	.	4e	.
.	.	4f	.
=158	=158	=158	=158
2G	0r	2g	2b-y
2F	.	1a	2a
1G	.	.	1b-y
.	.	2g	.
=159	=159	=159	=159
0r	0r	2f	2a
.	.	4e	2.g
.	.	4d	.
.	.	1e	.
.	.	.	4a
.	.	.	4b-y
.	.	.	4cc
=160	=160	=160	=160
1r	0r	2d	2dd
.	.	2.A	1ee
2r	.	.	.
.	.	8B-yL	.
.	.	8AJ	.
2D	.	2B-y	2dd
=161	=161	=161	=161
1F	0r	2A	2.cc
.	.	1f	.
.	.	.	8b-yL
.	.	.	8aJ
1G	.	.	1b-y
.	.	2e	.
=162	=162	=162	=162
2F	0r	1f	[0a
2D	.	.	.
2.F	.	1r	.
4G	.	.	.
=163	=163	=163	=163
2A	0r	2r	0a]
1F	.	2c	.
.	.	1f	.
4E	.	.	.
4D	.	.	.
=164	=164	=164	=164
1E	0r	1g	1r
[1D	.	2f	[1a
.	.	2d	.
=165	=165	=165	=165
1D]	0r	2.f	1a]
.	.	4g	.
1r	.	2a	1cc
.	.	[2f	.
=166	=166	=166	=166
0r	0r	2f]	1dd
.	.	4e	.
.	.	4d	.
.	.	2e	2cc
.	.	[2f	2a
=167	=167	=167	=167
1r	0r	4f]	2.cc
.	.	4g	.
.	.	4a	.
.	.	4f	4dd
1C	.	4g	2ee
.	.	4f	.
.	.	4e	[2cc
.	.	4d	.
=168	=168	=168	=168
1F	0r	2c	2cc]
.	.	1f	4b-y
.	.	.	4a
1G	.	.	1b-y
.	.	2e	.
=169	=169	=169	=169
2F	0r	1.f	1a
2D	.	.	.
2.A	.	.	2r
.	.	4e	[2cc
4B-y	.	4d	.
=170	=170	=170	=170
2c	0r	2e	2cc]
2d	.	2f	4b-y
.	.	.	4a
2G	.	2d	2b-y
[2A	.	4c	[2cc
.	.	4d	.
=171	=171	=171	=171
4A]	0r	4e	4cc]
4F	.	4f	4dd
2c	.	4g	4ee
.	.	4e	4cc
2B-y	.	2f	4dd
.	.	.	4cc
2G	.	2g	4b-y
.	.	.	4a
=172	=172	=172	=172
1c	0r	2.e	2g
.	.	.	1cc
.	.	8dL	.
.	.	8cJ	.
1G	.	1d	.
.	.	.	2bnXi
=173	=173	=173	=173
0Cl	0r	0cl	0ccl
=174||	=174||	=174||	=174||
*M2/1	*M2/1	*M2/1	*M2/1
*met(C|)	*met(C|)	*met(C|)	*met(C|)
!!section: Et in spiritum
!!!OMD: Et in spiritum
1.C	1.G	1.e	1r
.	.	.	[1cc
2C	2G	2e	.
=175	=175	=175	=175
1C	1G	1e	2cc]
.	.	.	2cc
1C	1G	1e	1cc
=176	=176	=176	=176
0F	2.A	1c	1cc
.	4B-y	.	.
.	1c	1f	1a
=177	=177	=177	=177
1.G	1B-y	1d	1.b-y
.	1d	[1g	.
2G	.	.	2b-y
=178	=178	=178	=178
1B-y	2d	2g]	1b-y
.	1d	2f	.
1B-y	.	[1f	1b-y
.	2d	.	.
=179	=179	=179	=179
0F	1c	2f]	1a
.	.	4e	.
.	.	4d	.
.	1A	1c	1a
=180	=180	=180	=180
1D	1d	1f	2a
.	.	.	2b-y
2C	2e	2g	2cc
2BB-y	[2f	[2b-y	[2dd
=181	=181	=181	=181
1F	2f]	4b-]	4dd]
.	.	4a	4cc
.	2f	1a	1cc
1G	1d	.	.
.	.	2g	2bnXi
=182	=182	=182	=182
1F	1.f	0a	1cc
2.D	.	.	1r
.	4e	.	.
4E	4d	.	.
=183	=183	=183	=183
4F	2.c	0r	1cc
4G	.	.	.
1A	.	.	.
.	4d	.	.
.	2e	.	2cc
4G	[2f	.	2cc
4F	.	.	.
=184	=184	=184	=184
1G	2f]	1r	2b-y
.	2e	.	2g
1r	1d	1f	2a
.	.	.	2b-y
=185	=185	=185	=185
0r	0r	2f	2.cc
.	.	2f	.
.	.	.	4b-y
.	.	2e	2g
.	.	2c	2cc
=186	=186	=186	=186
0r	0r	2d	2b-y
.	.	2e	2.cc
.	.	2.f	.
.	.	.	4b-y
.	.	.	4a
.	.	4e	4g
=187	=187	=187	=187
1F	0r	2c	2f
.	.	2.A	1cc
2F	.	.	.
.	.	4B-y	.
2F	.	[2c	4b-y
.	.	.	4a
=188	=188	=188	=188
2E	0r	2c]	2g
2C	.	4B-y	1a
.	.	4A	.
2D	.	1B-y	.
2E	.	.	2g
=189	=189	=189	=189
2.F	1c	1A	1a
4E	.	.	.
2C	2c	1r	1r
2F	2c	.	.
=190	=190	=190	=190
2E	2c	0r	0r
2.F	2c	.	.
.	2A	.	.
4E	.	.	.
4D	2A	.	.
4C	.	.	.
=191	=191	=191	=191
1BB-y	2B-y	1r	2r
.	1B-y	.	1dd
[1BB-y	.	1f	.
.	2B-y	.	2dd
=192	=192	=192	=192
2BB-]	2B-y	2f	2dd
2BB-y	2B-y	2f	2b-y
2BB-y	1B-y	2d	2.dd
2BB-y	.	[2f	.
.	.	.	4ee
=193	=193	=193	=193
2.D	[0A	4f]	2ff
.	.	4g	.
.	.	1a	4ee
4E	.	.	4dd
1F	.	.	2cc
.	.	4g	[2dd
.	.	4f	.
=194	=194	=194	=194
1r	1A]	1e	2dd]
.	.	.	2cc#i
1D	2r	2.d	[1dd
.	[2A	.	.
.	.	4e	.
=195	=195	=195	=195
2D	2A]	1f	1dd]
2D	2A	.	.
2F	2A	1d	1r
2G	2B-y	.	.
=196	=196	=196	=196
2A	2c	2r	1a
2D	2.d	1f	.
1F	.	.	2a
.	4c	.	.
.	[2c	2f	2a
=197	=197	=197	=197
2F	2c]	2f	2a
2G	1g	1e	2b-y
2A	.	.	2cc
2B-y	2f	2d	[2dd
=198	=198	=198	=198
1c	2.e	0g	4dd]
.	.	.	4cc
.	.	.	1cc
.	8dL	.	.
.	8cJ	.	.
1G	1d	.	.
.	.	.	2bnXi
=199	=199	=199	=199
1r	[0c	0e	1cc
1A	.	.	1r
=200	=200	=200	=200
2A	1c]	2r	1cc
1A	.	2f	.
.	1r	2e	2cc
2A	.	[2f	[2cc
=201	=201	=201	=201
1F	1c	2f]	2cc]
.	.	4e	2cc
.	.	4d	.
2r	2c	2e	1a
2F	[2c	2f	.
=202	=202	=202	=202
2E	2c]	2g	0r
1F	2c	1a	.
.	1A	.	.
4E	.	4g	.
4D	.	4f	.
=203	=203	=203	=203
2E	1c	2g	0r
2F	.	2a	.
2G	2.B-y	2.d	.
[2B-y	.	.	.
.	4c	4e	.
=204	=204	=204	=204
2B-]	4d	1f	0r
.	4e	.	.
2A	1f	.	.
1G	.	1r	.
.	2e	.	.
=205	=205	=205	=205
1F	2d	2r	1a
.	2.c	2f	.
1r	.	2e	[1cc
.	4B-y	.	.
.	4A	[2f	.
.	4G	.	.
=206	=206	=206	=206
0r	0A	2f]	2cc]
.	.	4e	2cc
.	.	4d	.
.	.	2e	1cc
.	.	2f	.
=207	=207	=207	=207
0r	1r	2g	2.b-y
.	.	2b-y	.
.	.	.	4cc
.	2r	2b-y	4dd
.	.	.	4ee
.	2F	2a	[2ff
=208	=208	=208	=208
1r	2c	1g	2ff]
.	2c	.	2ee
2r	1F	1f	2dd
2F	.	.	2cc
=209	=209	=209	=209
2BB-y	2r	2r	1dd
2BB-y	2B-y	2f	.
1F	2A	2.f	1cc
.	2A	.	.
.	.	4g	.
=210	=210	=210	=210
2r	1d	2a	0r
2D	.	2b-y	.
2.D	2r	2a	.
.	2A	[2f	.
4E	.	.	.
=211	=211	=211	=211
2F	2A	2f]	0r
2G	2B-y	4e	.
.	.	4d	.
[1F	2c	[1a	.
.	2d	.	.
=212	=212	=212	=212
2F]	1.c	1a]	0r
2F	.	.	.
2C	.	1r	.
2E	2c	.	.
=213	=213	=213	=213
1D	2F	2r	1r
.	2A	2d	.
1r	1G	2d	2r
.	.	2e	2g
=214	=214	=214	=214
0r	0r	2f	2a
.	.	2g	2b-y
.	.	[1f	2cc
.	.	.	2dd
=215	=215	=215	=215
0r	0r	2f]	1.cc
.	.	2f	.
.	.	2c	.
.	.	2e	2cc
=216	=216	=216	=216
2r	0r	4d	1f
.	.	4c	.
2BB-y	.	1f	.
2BB-y	.	.	1g
2C	.	2e	.
=217	=217	=217	=217
2.D	2r	1f	1f
.	2F	.	.
4C	.	.	.
2D	2F	1r	1r
2E	2G	.	.
=218	=218	=218	=218
2F	2A	0r	0r
2G	2B-y	.	.
2F	2.c	.	.
4E	.	.	.
4D	4B-y	.	.
=219	=219	=219	=219
2E	2c	0r	0r
4D	2d	.	.
4E	.	.	.
4F	2.c	.	.
4G	.	.	.
[2A	.	.	.
.	8B-yL	.	.
.	8AJ	.	.
=220	=220	=220	=220
2A]	1B-y	1r	0r
2G	.	.	.
2F	1A	2r	.
4E	.	2c	.
4D	.	.	.
=221	=221	=221	=221
1E	0r	2c	1r
.	.	2c	.
1D	.	2.d	2r
.	.	.	2f
.	.	4c	.
=222	=222	=222	=222
0r	0r	2d	2f
.	.	2e	2g
.	.	2f	2a
.	.	2g	2b-y
=223	=223	=223	=223
0r	0r	2f	2.cc
.	.	4e	.
.	.	4d	4b-y
.	.	2e	2cc
.	.	4d	2dd
.	.	4e	.
=224	=224	=224	=224
0r	0r	4f	2cc
.	.	4g	.
.	.	1a	4b-y
.	.	.	4a
.	.	.	1b-y
.	.	2g	.
=225	=225	=225	=225
0r	0r	2a	1a
.	.	1d	.
.	.	.	2r
.	.	2c	2a
=226	=226	=226	=226
0r	2r	2d	2.a
.	2A	2f	.
.	.	.	4b-y
.	2A	2e	2cc
.	2B-y	2d	2dd
=227	=227	=227	=227
1r	2c	1a	2ee
.	2d	.	2ff
2r	2e	2g	2cc
2D	[2f	[2a	[2dd
=228	=228	=228	=228
2D	4f]	2a]	4dd]
.	4e	.	4cc
2E	4d	2g	1cc
.	4c	.	.
2F	2d	2r	.
2G	2e	2g	2b-y
=229	=229	=229	=229
2A	2c	2f	2cc
2B-y	2d	2.g	2.b-y
1F	2c	.	.
.	.	4f	4a
.	2A	2f	[2a
=230	=230	=230	=230
1G	1B-y	2.d	2a]
.	.	.	2g
.	.	4e	.
[1D	[1A	1f	[1a
=231	=231	=231	=231
0D]	1A]	2r	0a]
.	.	2f	.
.	2r	2.f	.
.	2A	.	.
.	.	4e	.
=232	=232	=232	=232
1r	2A	2f	0r
.	2B-y	2g	.
2r	1c	2e	.
2F	.	[2f	.
=233	=233	=233	=233
2.F	1A	4f]	2r
.	.	4e	.
.	.	4d	2a
4E	.	4c	.
2F	1r	1d	2a
2G	.	.	2b-y
=234	=234	=234	=234
2E	2r	1c	1cc
2.F	1A	.	.
.	.	1r	[1f
4E	.	.	.
4D	2A	.	.
4C	.	.	.
=235	=235	=235	=235
1D	2A	2r	1f]
.	2B-y	1f	.
1C	2c	.	1r
.	[2G	2e	.
=236	=236	=236	=236
1.G	4G]	2d	1r
.	4A	.	.
.	4B-y	2d	.
.	4c	.	.
.	1d	1g	2r
4F	.	.	[2b-y
4E	.	.	.
=237	=237	=237	=237
2D	2r	1f	2b-]
2F	1c	.	2a
2C	.	2.e	2g
[2G	2B-y	.	2g
.	.	4d	.
=238	=238	=238	=238
2G]	2A	2e	1cc
2F	2A	2f	.
2G	1d	2B-y	2b-y
2D	.	[2f	[2a
=239	=239	=239	=239
2F	2c	2f]	2a]
2C	1c	2e	2g
2F	.	1f	4a
.	.	.	4b-y
2A	2c	.	[2cc
=240	=240	=240	=240
1G	1d	1g	2cc]
.	.	.	2bnXi
[1C	2c	2.e	2.cc
.	[2c	.	.
.	.	4d	8b-yL
.	.	.	8aJ
=241	=241	=241	=241
2C]	2c]	2e	2g
2.F	2c	2f	2.a
.	2f	1c	.
4G	.	.	4b-y
2A	2e	.	2cc
=242	=242	=242	=242
1B-y	2.d	1r	1f
.	8cL	.	.
.	8B-yJ	.	.
1r	1A	2r	1a
.	.	[2e	.
=243	=243	=243	=243
1G	0r	2e]	2g
.	.	2d	2b-y
2F	.	2f	2a
[2G	.	2e	[2g
=244	=244	=244	=244
2G]	0r	1d	2g]
2B-y	.	.	2f
2A	.	2c	1cc
2F	.	[2f	.
=245	=245	=245	=245
2G	0r	2f]	2b-y
2A	.	2e	1cc
1F	.	2f	.
.	.	2c	[2a
=246	=246	=246	=246
1C	1c	1e	2a]
.	.	.	2g
2G	2B-y	2d	2b-y
2F	[2c	2A	2a
=247	=247	=247	=247
2r	2c]	2.c	1g
2C	2e	.	.
.	.	4B-y	.
2D	2d	2A	2f
2E	2c	2G	[2cc
=248	=248	=248	=248
2F	2d	2r	2cc]
2G	2d	2g	2bnXi
2E	[1c	2g	2cc
2F	.	[2f	[2a
=249	=249	=249	=249
1C	0c]	2f]	2a]
.	.	4e	4g
.	.	4d	4f
2r	.	1e	1g
2C	.	.	.
=250	=250	=250	=250
1D	2r	1A	1f
.	2F	.	.
2E	2G	1c	2r
2F	[2A	.	[2f
=251	=251	=251	=251
2D	2A]	2d	2f]
2C	1c	2e	2g
2F	.	2f	2a
2G	[2B-y	[2d	2b-y
=252	=252	=252	=252
1E-X	2B-]	2d]	1g
.	2G	2c	.
1D	1A	2d	2f
.	.	[2f	2a
=253	=253	=253	=253
2r	1G	2f]	2b-y
2C	.	2e	2cc
1D	2F	1f	1a
.	2F	.	.
=254	=254	=254	=254
2E	2G	1c	2g
2F	1A	.	1f
2D	.	2d	.
2C	[2c	2e	2g
=255	=255	=255	=255
2F	2c]	2f	2a
2G	1B-y	1d	2b-y
1E-i	.	.	1g
.	2G	2c	.
=256	=256	=256	=256
2D	2A	2.d	2f
2G	2B-y	.	2g
.	.	4e	.
2F	2c	2f	2a
2G	4B-y	2d	2b-y
.	4A	.	.
=257	=257	=257	=257
2C	2G	2e	2.cc
2.F	2.A	2.c	.
.	.	.	4b-y
.	.	.	2a
4E	4B-y	4d	.
2C	4c	2e	[2g
.	4A	.	.
=258	=258	=258	=258
1D	4B-y	2d	4g]
.	4A	.	4f
.	4G	2B-y	1f
.	4F	.	.
1C	1G	1c	.
.	.	.	2e
=259	=259	=259	=259
0Fl	0Fl	0cl	0fl
==	==	==	==
*-	*-	*-	*-
!!!system-decoration: s1,s2,s3,s4
!!!RDF**kern: i = editorial accidental
!!!RDF**kern: l = terminal long
!!!ENC: Maura Sugg
!!!END: 2025/3/21
!!!EED: Benjamin Ory
!!!EEV: 2026/03/23
!!!YEC: Copyright 2026 Irene Holzer, All Rights Reserved
!!!ONB: Translated from MusicXML on 2026/03/23
!!!verovio: header encoded
!!!header-left: Edited by Irene Holzer\n
!!!header-right:
!!!header-center: